X: 92
T:Cook in the Kitchen
R:Jig
C:Trad
M:6/8
L:1/8
K:G
E DGG GAG | FDE =F2 E | DGG GFG | Add cAG  |
  DGG GAG | FDE =F2 d | cAG FGA |1BGF G2E:|2BGF G2A||
  ~B3 BAG | ~A3 AGF | ~G3 GFG | Add cAG |
  BcB BAG | ABA A2d | cAG FGA|1BGF G2A:|2BGF G2B ||
  d2 e f2 g | a2 g fed | cAG FGA | BGB AFD |
  d2 e f2 g | a2 g fed | cAG FGA |1BGF G2B:|2BGF G2BE|

